;FLAVOR:Marlin
;TIME:13177
;Filament used: 8.83317m
;Layer height: 0.2
;MINX:71.22
;MINY:51.7
;MINZ:0.2
;MAXX:137.7
;MAXY:135.9
;MAXZ:25
;Generated with Cura_SteamEngine 4.9.0
M140 S50
M105
M190 S50
M104 S200
M105
M109 S200
M82 ;absolute extrusion mode
; Ender 3 Custom Start G-code
G92 E0 ; Reset Extruder
G28 ; Home all axes
G1 Z2.0 F3000 ; Move Z Axis up little to prevent scratching of Heat Bed
G1 X0.1 Y20 Z0.3 F5000.0 ; Move to start position
G1 X0.1 Y200.0 Z0.3 F1500.0 E15 ; Draw the first line
G1 X0.4 Y200.0 Z0.3 F5000.0 ; Move to side a little
G1 X0.4 Y20 Z0.3 F1500.0 E30 ; Draw the second line
G92 E0 ; Reset Extruder
G1 Z2.0 F3000 ; Move Z Axis up little to prevent scratching of Heat Bed
G1 X5 Y20 Z0.3 F5000.0 ; Move over to prevent blob squish
G92 E0
G92 E0
G1 F2700 E-5
;LAYER_COUNT:125
;LAYER:0
M107
G0 F6000 X77.417 Y55.046 Z0.2
;TYPE:SKIRT
G1 F2700 E0
G1 F1200 X77.9 Y54.422 E0.02625
G1 X78.443 Y53.849 E0.0525
G1 X79.042 Y53.334 E0.07878
G1 X79.69 Y52.883 E0.10503
G1 X80.381 Y52.499 E0.13133
G1 X81.106 Y52.187 E0.15758
G1 X81.859 Y51.95 E0.18383
G1 X82.633 Y51.791 E0.21012
G1 X83.418 Y51.71 E0.23636
G1 X83.82 Y51.7 E0.24974
G1 X103.82 Y51.7 E0.91494
G1 X104.609 Y51.74 E0.94122
G1 X105.389 Y51.859 E0.96746
G1 X105.706 Y51.941 E0.97835
G1 X125.1 Y51.941 E1.6234
G1 X125.889 Y51.981 E1.64967
G1 X126.669 Y52.1 E1.67592
G1 X127.434 Y52.298 E1.7022
G1 X128.174 Y52.572 E1.72844
G1 X128.883 Y52.92 E1.75471
G1 X129.554 Y53.338 E1.78101
G1 X130.178 Y53.821 E1.80725
G1 X130.751 Y54.364 E1.83351
G1 X131.266 Y54.963 E1.85978
G1 X131.717 Y55.611 E1.88604
G1 X132.101 Y56.302 E1.91233
G1 X132.413 Y57.027 E1.93859
G1 X132.65 Y57.78 E1.96484
G1 X132.809 Y58.554 E1.99112
G1 X132.89 Y59.339 E2.01737
G1 X132.9 Y59.741 E2.03075
G1 X132.9 Y61.545 E2.09075
G1 X132.974 Y61.572 E2.09337
G1 X133.683 Y61.92 E2.11964
G1 X134.354 Y62.338 E2.14593
G1 X134.978 Y62.821 E2.17217
G1 X135.551 Y63.364 E2.19843
G1 X136.066 Y63.963 E2.2247
G1 X136.517 Y64.611 E2.25096
G1 X136.901 Y65.302 E2.27726
G1 X137.213 Y66.027 E2.30351
G1 X137.45 Y66.78 E2.32976
G1 X137.609 Y67.554 E2.35605
G1 X137.69 Y68.339 E2.38229
G1 X137.7 Y68.741 E2.39567
G1 X137.7 Y93.541 E3.22052
G1 X137.687 Y93.804 E3.22928
G1 X137.69 Y93.836 E3.23035
G1 X137.7 Y94.238 E3.24372
G1 X137.7 Y119.038 E4.06857
G1 X137.66 Y119.827 E4.09485
G1 X137.541 Y120.607 E4.12109
G1 X137.343 Y121.372 E4.14737
G1 X137.069 Y122.112 E4.17362
G1 X136.721 Y122.821 E4.19989
G1 X136.303 Y123.492 E4.22618
G1 X135.82 Y124.116 E4.25243
G1 X135.277 Y124.689 E4.27868
G1 X134.678 Y125.204 E4.30496
G1 X134.03 Y125.655 E4.33122
G1 X133.339 Y126.039 E4.35751
G1 X132.9 Y126.228 E4.37341
G1 X132.9 Y128.038 E4.43361
G1 X132.86 Y128.827 E4.45988
G1 X132.741 Y129.607 E4.48613
G1 X132.543 Y130.372 E4.51241
G1 X132.269 Y131.112 E4.53865
G1 X131.921 Y131.821 E4.56492
G1 X131.503 Y132.492 E4.59122
G1 X131.02 Y133.116 E4.61746
G1 X130.477 Y133.689 E4.64372
G1 X129.878 Y134.204 E4.66999
G1 X129.23 Y134.655 E4.69625
G1 X128.539 Y135.039 E4.72254
G1 X127.814 Y135.351 E4.7488
G1 X127.061 Y135.588 E4.77505
G1 X126.287 Y135.747 E4.80133
G1 X125.502 Y135.828 E4.82758
G1 X125.1 Y135.838 E4.84096
G1 X105.1 Y135.838 E5.50616
G1 X105.037 Y135.835 E5.50826
G1 X104.502 Y135.89 E5.52614
G1 X104.1 Y135.9 E5.53952
G1 X84.1 Y135.9 E6.20472
G1 X83.311 Y135.86 E6.231
G1 X82.531 Y135.741 E6.25724
G1 X81.766 Y135.543 E6.28352
G1 X81.026 Y135.269 E6.30977
G1 X80.317 Y134.921 E6.33604
G1 X79.646 Y134.503 E6.36233
G1 X79.022 Y134.02 E6.38858
G1 X78.449 Y133.477 E6.41483
G1 X77.934 Y132.878 E6.44111
G1 X77.483 Y132.23 E6.46736
G1 X77.099 Y131.539 E6.49366
G1 X76.787 Y130.814 E6.51991
G1 X76.55 Y130.061 E6.54617
G1 X76.391 Y129.287 E6.57245
G1 X76.31 Y128.502 E6.59869
G1 X76.3 Y128.1 E6.61207
G1 X76.3 Y126.296 E6.67207
G1 X76.226 Y126.269 E6.67469
G1 X75.517 Y125.921 E6.70096
G1 X74.846 Y125.503 E6.72725
G1 X74.222 Y125.02 E6.7535
G1 X73.649 Y124.477 E6.77975
G1 X73.134 Y123.878 E6.80603
G1 X72.683 Y123.23 E6.83229
G1 X72.299 Y122.539 E6.85858
G1 X71.987 Y121.814 E6.88483
G1 X71.75 Y121.061 E6.91109
G1 X71.591 Y120.287 E6.93737
G1 X71.51 Y119.502 E6.96362
G1 X71.5 Y119.1 E6.97699
G1 X71.5 Y95.356 E7.76672
G1 X71.47 Y95.261 E7.77003
G1 X71.311 Y94.487 E7.79631
G1 X71.23 Y93.702 E7.82256
G1 X71.22 Y93.3 E7.83594
G1 X71.22 Y68.5 E8.66079
G1 X71.26 Y67.711 E8.68706
G1 X71.379 Y66.931 E8.71331
G1 X71.577 Y66.166 E8.73959
G1 X71.851 Y65.426 E8.76584
G1 X72.199 Y64.717 E8.7921
G1 X72.617 Y64.046 E8.8184
G1 X73.1 Y63.422 E8.84464
G1 X73.643 Y62.849 E8.8709
G1 X74.242 Y62.334 E8.89717
G1 X74.89 Y61.883 E8.92343
G1 X75.581 Y61.499 E8.94972
G1 X76.02 Y61.31 E8.96562
G1 X76.02 Y59.5 E9.02582
G1 X76.06 Y58.711 E9.0521
G1 X76.179 Y57.931 E9.07834
G1 X76.377 Y57.166 E9.10462
G1 X76.651 Y56.426 E9.13087
G1 X76.999 Y55.717 E9.15714
G1 X77.417 Y55.046 E9.18343
G0 F6000 X77.814 Y55.177
G1 F1200 X78.295 Y54.577 E9.20901
G1 X78.836 Y54.03 E9.2346
G1 X79.431 Y53.542 E9.26019
G1 X80.073 Y53.119 E9.28576
G1 X80.756 Y52.764 E9.31137
G1 X81.471 Y52.483 E9.33692
G1 X82.213 Y52.277 E9.36253
G1 X82.971 Y52.149 E9.3881
G1 X83.82 Y52.1 E9.41638
G1 X103.82 Y52.1 E10.08159
G1 X104.588 Y52.14 E10.10716
G1 X105.348 Y52.259 E10.13275
G1 X105.656 Y52.341 E10.14335
G1 X125.1 Y52.341 E10.79006
G1 X125.868 Y52.381 E10.81564
G1 X126.628 Y52.5 E10.84122
G1 X127.371 Y52.698 E10.8668
G1 X128.09 Y52.972 E10.89239
G1 X128.776 Y53.319 E10.91796
G1 X129.423 Y53.735 E10.94354
G1 X130.023 Y54.216 E10.96912
G1 X130.57 Y54.757 E10.99471
G1 X131.058 Y55.352 E11.0203
G1 X131.481 Y55.994 E11.04588
G1 X131.836 Y56.677 E11.07148
G1 X132.117 Y57.392 E11.09703
G1 X132.323 Y58.134 E11.12264
G1 X132.451 Y58.892 E11.14821
G1 X132.5 Y59.741 E11.17649
G1 X132.5 Y61.823 E11.24574
G1 X132.89 Y61.972 E11.25963
G1 X133.576 Y62.319 E11.2852
G1 X134.223 Y62.735 E11.31078
G1 X134.823 Y63.216 E11.33636
G1 X135.37 Y63.757 E11.36195
G1 X135.858 Y64.352 E11.38754
G1 X136.281 Y64.994 E11.41311
G1 X136.636 Y65.677 E11.43871
G1 X136.917 Y66.392 E11.46427
G1 X137.123 Y67.134 E11.48988
G1 X137.251 Y67.892 E11.51545
G1 X137.3 Y68.741 E11.54373
G1 X137.3 Y93.541 E12.36858
G1 X137.281 Y93.907 E12.38077
G1 X137.3 Y94.238 E12.3918
G1 X137.3 Y119.038 E13.21665
G1 X137.26 Y119.806 E13.24223
G1 X137.141 Y120.566 E13.26781
G1 X136.943 Y121.309 E13.29339
G1 X136.669 Y122.028 E13.31898
G1 X136.322 Y122.714 E13.34455
G1 X135.906 Y123.361 E13.37013
G1 X135.425 Y123.961 E13.39571
G1 X134.884 Y124.508 E13.4213
G1 X134.289 Y124.996 E13.44689
G1 X133.647 Y125.419 E13.47247
G1 X132.964 Y125.774 E13.49807
G1 X132.5 Y125.956 E13.51464
G1 X132.5 Y128.038 E13.58389
G1 X132.46 Y128.806 E13.60947
G1 X132.341 Y129.566 E13.63506
G1 X132.143 Y130.309 E13.66063
G1 X131.869 Y131.028 E13.68622
G1 X131.522 Y131.714 E13.71179
G1 X131.106 Y132.361 E13.73738
G1 X130.625 Y132.961 E13.76295
G1 X130.084 Y133.508 E13.78854
G1 X129.489 Y133.996 E13.81414
G1 X128.847 Y134.419 E13.83971
G1 X128.164 Y134.774 E13.86531
G1 X127.449 Y135.055 E13.89086
G1 X126.707 Y135.261 E13.91647
G1 X125.949 Y135.389 E13.94204
G1 X125.1 Y135.438 E13.97033
G1 X105.1 Y135.438 E14.63553
G1 X104.949 Y135.451 E14.64057
G1 X104.1 Y135.5 E14.66885
G1 X84.1 Y135.5 E15.33406
G1 X83.332 Y135.46 E15.35964
G1 X82.572 Y135.341 E15.38522
G1 X81.829 Y135.143 E15.4108
G1 X81.11 Y134.869 E15.43639
G1 X80.424 Y134.522 E15.46196
G1 X79.777 Y134.106 E15.48754
G1 X79.177 Y133.625 E15.51312
G1 X78.63 Y133.084 E15.53871
G1 X78.142 Y132.489 E15.5643
G1 X77.719 Y131.847 E15.58987
G1 X77.364 Y131.164 E15.61547
G1 X77.083 Y130.449 E15.64103
G1 X76.877 Y129.707 E15.66664
G1 X76.749 Y128.949 E15.69221
G1 X76.7 Y128.1 E15.72049
G1 X76.7 Y126.018 E15.78974
G1 X76.31 Y125.869 E15.80362
G1 X75.624 Y125.522 E15.82919
G1 X74.977 Y125.106 E15.85478
G1 X74.377 Y124.625 E15.88035
G1 X73.83 Y124.084 E15.90594
G1 X73.342 Y123.489 E15.93154
G1 X72.919 Y122.847 E15.95711
G1 X72.564 Y122.164 E15.98271
G1 X72.283 Y121.449 E16.00826
G1 X72.077 Y120.707 E16.03387
G1 X71.949 Y119.949 E16.05944
G1 X71.9 Y119.1 E16.08773
G1 X71.9 Y95.278 E16.88005
G1 X71.797 Y94.907 E16.89286
G1 X71.669 Y94.149 E16.91842
G1 X71.62 Y93.3 E16.94671
G1 X71.62 Y68.5 E17.77156
G1 X71.66 Y67.732 E17.79714
G1 X71.779 Y66.972 E17.82272
G1 X71.977 Y66.229 E17.8483
G1 X72.251 Y65.51 E17.87389
G1 X72.598 Y64.824 E17.89946
G1 X73.014 Y64.177 E17.92504
G1 X73.495 Y63.577 E17.95062
G1 X74.036 Y63.03 E17.97621
G1 X74.631 Y62.542 E18.0018
G1 X75.273 Y62.119 E18.02738
G1 X75.956 Y61.764 E18.05298
G1 X76.42 Y61.582 E18.06955
G1 X76.42 Y59.5 E18.1388
G1 X76.46 Y58.732 E18.16438
G1 X76.579 Y57.972 E18.18997
G1 X76.777 Y57.229 E18.21554
G1 X77.051 Y56.51 E18.24113
G1 X77.398 Y55.824 E18.2667
G1 X77.814 Y55.177 E18.29229
G0 F6000 X78.212 Y55.311
G1 F1200 X78.691 Y54.737 E18.31715
G1 X79.228 Y54.216 E18.34204
G1 X79.818 Y53.757 E18.3669
G1 X80.454 Y53.362 E18.3918
G1 X81.128 Y53.038 E18.41667
G1 X81.833 Y52.788 E18.44155
G1 X82.561 Y52.614 E18.46645
G1 X83.303 Y52.519 E18.49133
G1 X83.82 Y52.5 E18.50854
G1 X103.82 Y52.5 E19.17374
G1 X104.567 Y52.54 E19.19862
G1 X105.305 Y52.659 E19.22348
G1 X105.604 Y52.741 E19.23379
G1 X125.1 Y52.741 E19.88223
G1 X125.847 Y52.781 E19.90711
G1 X126.585 Y52.9 E19.93198
G1 X127.307 Y53.098 E19.95688
G1 X128.003 Y53.371 E19.98174
G1 X128.666 Y53.718 E20.00663
G1 X129.289 Y54.133 E20.03153
G1 X129.863 Y54.612 E20.0564
G1 X130.384 Y55.149 E20.08128
G1 X130.843 Y55.739 E20.10614
G1 X131.238 Y56.375 E20.13105
G1 X131.562 Y57.049 E20.15592
G1 X131.812 Y57.754 E20.1808
G1 X131.986 Y58.482 E20.20569
G1 X132.081 Y59.224 E20.23057
G1 X132.1 Y59.741 E20.24778
G1 X132.1 Y62.096 E20.32611
G1 X132.803 Y62.371 E20.35122
G1 X133.466 Y62.718 E20.3761
G1 X134.089 Y63.133 E20.401
G1 X134.663 Y63.612 E20.42587
G1 X135.184 Y64.149 E20.45075
G1 X135.643 Y64.739 E20.47562
G1 X136.038 Y65.375 E20.50052
G1 X136.362 Y66.049 E20.52539
G1 X136.612 Y66.754 E20.55027
G1 X136.786 Y67.482 E20.57516
G1 X136.881 Y68.224 E20.60004
G1 X136.9 Y68.741 E20.61725
G1 X136.9 Y93.541 E21.4421
G1 X136.885 Y93.817 E21.4513
G1 X136.9 Y94.238 E21.46531
G1 X136.9 Y119.038 E22.29016
G1 X136.86 Y119.785 E22.31504
G1 X136.741 Y120.523 E22.3399
G1 X136.543 Y121.245 E22.3648
G1 X136.27 Y121.941 E22.38967
G1 X135.923 Y122.604 E22.41456
G1 X135.508 Y123.227 E22.43946
G1 X135.029 Y123.801 E22.46432
G1 X134.492 Y124.322 E22.48921
G1 X133.902 Y124.781 E22.51407
G1 X133.266 Y125.176 E22.53897
G1 X132.592 Y125.5 E22.56384
G1 X132.1 Y125.674 E22.5812
G1 X132.1 Y128.038 E22.65983
G1 X132.06 Y128.785 E22.68471
G1 X131.941 Y129.523 E22.70957
G1 X131.743 Y130.245 E22.73447
G1 X131.47 Y130.941 E22.75934
G1 X131.123 Y131.604 E22.78423
G1 X130.708 Y132.227 E22.80912
G1 X130.229 Y132.801 E22.83399
G1 X129.692 Y133.322 E22.85888
G1 X129.102 Y133.781 E22.88374
G1 X128.466 Y134.176 E22.90864
G1 X127.792 Y134.5 E22.93351
G1 X127.087 Y134.75 E22.95839
G1 X126.359 Y134.924 E22.98329
G1 X125.617 Y135.019 E23.00817
G1 X125.1 Y135.038 E23.02537
G1 X105.1 Y135.038 E23.69058
G1 X104.996 Y135.032 E23.69404
G1 X104.617 Y135.081 E23.70675
G1 X104.1 Y135.1 E23.72396
G1 X84.1 Y135.1 E24.38916
G1 X83.353 Y135.06 E24.41404
G1 X82.615 Y134.941 E24.43891
G1 X81.893 Y134.743 E24.46381
G1 X81.197 Y134.47 E24.48867
G1 X80.534 Y134.123 E24.51356
G1 X79.911 Y133.708 E24.53846
G1 X79.337 Y133.229 E24.56332
G1 X78.816 Y132.692 E24.58821
G1 X78.357 Y132.102 E24.61307
G1 X77.962 Y131.466 E24.63797
G1 X77.638 Y130.792 E24.66285
G1 X77.388 Y130.087 E24.68773
G1 X77.214 Y129.359 E24.71262
G1 X77.119 Y128.617 E24.7375
G1 X77.1 Y128.1 E24.75471
G1 X77.1 Y125.745 E24.83304
G1 X76.397 Y125.47 E24.85814
G1 X75.734 Y125.123 E24.88303
G1 X75.111 Y124.708 E24.90793
G1 X74.537 Y124.229 E24.9328
G1 X74.016 Y123.692 E24.95768
G1 X73.557 Y123.102 E24.98254
G1 X73.162 Y122.466 E25.00744
G1 X72.838 Y121.792 E25.03232
G1 X72.588 Y121.087 E25.0572
G1 X72.414 Y120.359 E25.08209
G1 X72.319 Y119.617 E25.10697
G1 X72.3 Y119.1 E25.12418
G1 X72.3 Y95.254 E25.9173
G1 X72.134 Y94.559 E25.94107
G1 X72.039 Y93.817 E25.96595
G1 X72.02 Y93.3 E25.98315
G1 X72.02 Y68.5 E26.80801
G1 X72.06 Y67.753 E26.83289
G1 X72.179 Y67.015 E26.85775
G1 X72.377 Y66.293 E26.88265
G1 X72.65 Y65.597 E26.90752
G1 X72.997 Y64.934 E26.93241
G1 X73.412 Y64.311 E26.9573
G1 X73.891 Y63.737 E26.98217
G1 X74.428 Y63.216 E27.00705
G1 X75.018 Y62.757 E27.03192
G1 X75.654 Y62.362 E27.05682
G1 X76.328 Y62.038 E27.08169
G1 X76.82 Y61.864 E27.09905
G1 X76.82 Y59.5 E27.17767
G1 X76.86 Y58.753 E27.20256
G1 X76.979 Y58.015 E27.22742
G1 X77.177 Y57.293 E27.25232
G1 X77.45 Y56.597 E27.27719
G1 X77.797 Y55.934 E27.30207
G1 X78.212 Y55.311 E27.32697
G0 F6000 X78.609 Y55.45
G1 F1200 X79.085 Y54.902 E27.35111
G1 X79.619 Y54.409 E27.37529
G1 X80.204 Y53.979 E27.39944
G1 X80.833 Y53.615 E27.42361
G1 X81.498 Y53.322 E27.44778
G1 X82.191 Y53.104 E27.47194
G1 X82.903 Y52.964 E27.49607
G1 X83.82 Y52.9 E27.52665
G1 X103.82 Y52.9 E28.19185
G1 X104.545 Y52.94 E28.216
G1 X105.262 Y53.059 E28.24017
G1 X105.551 Y53.141 E28.25017
G1 X125.1 Y53.141 E28.90037
G1 X125.825 Y53.181 E28.92452
G1 X126.542 Y53.3 E28.94869
G1 X127.241 Y53.498 E28.97286
G1 X127.914 Y53.771 E28.99701
G1 X128.553 Y54.116 E29.02116
G1 X129.15 Y54.53 E29.04533
G1 X129.698 Y55.006 E29.06947
G1 X130.191 Y55.54 E29.09364
G1 X130.621 Y56.125 E29.11779
G1 X130.985 Y56.754 E29.14196
G1 X131.278 Y57.419 E29.16613
G1 X131.496 Y58.112 E29.19029
G1 X131.636 Y58.824 E29.21443
G1 X131.7 Y59.741 E29.245
G1 X131.7 Y62.401 E29.33347
G1 X132.041 Y62.498 E29.34527
G1 X132.714 Y62.771 E29.36942
G1 X133.353 Y63.116 E29.39358
G1 X133.95 Y63.53 E29.41774
G1 X134.498 Y64.006 E29.44188
G1 X134.991 Y64.54 E29.46605
G1 X135.421 Y65.125 E29.4902
G1 X135.785 Y65.754 E29.51437
G1 X136.078 Y66.419 E29.53854
G1 X136.296 Y67.112 E29.56271
G1 X136.436 Y67.824 E29.58684
G1 X136.5 Y68.741 E29.61741
G1 X136.5 Y93.541 E30.44227
G1 X136.479 Y93.93 E30.45522
G1 X136.5 Y94.238 E30.46549
G1 X136.5 Y119.038 E31.29034
G1 X136.46 Y119.763 E31.31449
G1 X136.341 Y120.48 E31.33867
G1 X136.143 Y121.179 E31.36283
G1 X135.87 Y121.852 E31.38698
G1 X135.525 Y122.491 E31.41114
G1 X135.111 Y123.088 E31.4353
G1 X134.635 Y123.636 E31.45944
G1 X134.101 Y124.129 E31.48362
G1 X133.516 Y124.559 E31.50776
G1 X132.887 Y124.923 E31.53194
G1 X132.222 Y125.216 E31.55611
G1 X131.7 Y125.38 E31.5743
G1 X131.7 Y128.038 E31.66271
G1 X131.66 Y128.763 E31.68686
G1 X131.541 Y129.48 E31.71103
G1 X131.343 Y130.179 E31.7352
G1 X131.07 Y130.852 E31.75935
G1 X130.725 Y131.491 E31.78351
G1 X130.311 Y132.088 E31.80767
G1 X129.835 Y132.636 E31.83181
G1 X129.301 Y133.129 E31.85598
G1 X128.716 Y133.559 E31.88013
G1 X128.087 Y133.923 E31.9043
G1 X127.422 Y134.216 E31.92847
G1 X126.729 Y134.434 E31.95264
G1 X126.017 Y134.574 E31.97677
G1 X125.1 Y134.638 E32.00734
G1 X105.1 Y134.638 E32.67255
G1 X105.017 Y134.636 E32.67531
G1 X104.1 Y134.7 E32.70588
G1 X84.1 Y134.7 E33.37108
G1 X83.375 Y134.66 E33.39523
G1 X82.658 Y134.541 E33.41941
G1 X81.959 Y134.343 E33.44357
G1 X81.286 Y134.07 E33.46773
G1 X80.647 Y133.725 E33.49188
G1 X80.05 Y133.311 E33.51604
G1 X79.502 Y132.835 E33.54019
G1 X79.009 Y132.301 E33.56436
G1 X78.579 Y131.716 E33.58851
G1 X78.215 Y131.087 E33.61268
G1 X77.922 Y130.422 E33.63685
G1 X77.704 Y129.729 E33.66101
G1 X77.564 Y129.017 E33.68515
G1 X77.5 Y128.1 E33.71572
G1 X77.5 Y125.44 E33.80419
G1 X77.159 Y125.343 E33.81598
G1 X76.486 Y125.07 E33.84014
G1 X75.847 Y124.725 E33.86429
G1 X75.25 Y124.311 E33.88846
G1 X74.702 Y123.835 E33.9126
G1 X74.209 Y123.301 E33.93677
G1 X73.779 Y122.716 E33.96092
G1 X73.415 Y122.087 E33.98509
G1 X73.122 Y121.422 E34.00926
G1 X72.904 Y120.729 E34.03342
G1 X72.764 Y120.017 E34.05756
G1 X72.7 Y119.1 E34.08813
G1 X72.7 Y95.17 E34.88405
G1 X72.624 Y94.929 E34.89245
G1 X72.484 Y94.217 E34.91658
G1 X72.42 Y93.3 E34.94716
G1 X72.42 Y68.5 E35.77201
G1 X72.46 Y67.775 E35.79616
G1 X72.579 Y67.058 E35.82033
G1 X72.777 Y66.359 E35.8445
G1 X73.05 Y65.686 E35.86865
G1 X73.395 Y65.047 E35.89281
G1 X73.809 Y64.45 E35.91697
G1 X74.285 Y63.902 E35.94111
G1 X74.819 Y63.409 E35.96528
G1 X75.404 Y62.979 E35.98943
G1 X76.033 Y62.615 E36.0136
G1 X76.698 Y62.322 E36.03777
