;FLAVOR:Marlin
;TIME:1464
;Filament used: 0.320249m
;Layer height: 0.12
;MINX:100.157
;MINY:97.162
;MINZ:0.12
;MAXX:139.311
;MAXY:137.02
;MAXZ:4.92
;Generated with Cura_SteamEngine 4.9.0
M140 S50
M105
M190 S50
M104 S200
M105
M109 S200
M82 ;absolute extrusion mode
; Ender 3 Custom Start G-code
G92 E0 ; Reset Extruder
G28 ; Home all axes
G1 Z2.0 F3000 ; Move Z Axis up little to prevent scratching of Heat Bed
G1 X0.1 Y20 Z0.3 F5000.0 ; Move to start position
G1 X0.1 Y200.0 Z0.3 F1500.0 E15 ; Draw the first line
G1 X0.4 Y200.0 Z0.3 F5000.0 ; Move to side a little
G1 X0.4 Y20 Z0.3 F1500.0 E30 ; Draw the second line
G92 E0 ; Reset Extruder
G1 Z2.0 F3000 ; Move Z Axis up little to prevent scratching of Heat Bed
G1 X5 Y20 Z0.3 F5000.0 ; Move over to prevent blob squish
G92 E0
G92 E0
G1 F2700 E-5
;LAYER_COUNT:41
;LAYER:0
M107
G0 F6000 X106.767 Y101.049 Z0.12
;TYPE:SKIRT
G1 F2700 E0
G1 F1200 X107.366 Y100.534 E0.01576
G1 X108.014 Y100.083 E0.03152
G1 X108.705 Y99.699 E0.0473
G1 X109.43 Y99.387 E0.06305
G1 X110.183 Y99.15 E0.0788
G1 X110.957 Y98.991 E0.09457
G1 X111.742 Y98.91 E0.11032
G1 X112.144 Y98.9 E0.11834
G1 X113.089 Y98.9 E0.1372
G1 X113.266 Y98.784 E0.14142
G1 X113.948 Y98.386 E0.15718
G1 X114.727 Y98.035 E0.17423
G1 X115.354 Y97.793 E0.18765
G1 X116.105 Y97.547 E0.20342
G1 X116.821 Y97.386 E0.21806
G1 X117.468 Y97.273 E0.23117
G1 X118.252 Y97.177 E0.24693
G1 X119.091 Y97.162 E0.26368
G1 X119.756 Y97.186 E0.27696
G1 X120.543 Y97.254 E0.29272
G1 X121.319 Y97.402 E0.30848
G1 X121.96 Y97.558 E0.32165
G1 X122.717 Y97.784 E0.33742
G1 X123.478 Y98.099 E0.35385
G1 X124.081 Y98.387 E0.36719
G1 X124.775 Y98.763 E0.38294
G1 X125.449 Y99.223 E0.39922
G1 X125.984 Y99.631 E0.41265
G1 X126.587 Y100.141 E0.42841
G1 X127.142 Y100.718 E0.44439
G1 X127.572 Y101.213 E0.45747
G1 X128.06 Y101.834 E0.47323
G1 X128.482 Y102.504 E0.48904
G1 X128.806 Y103.08 E0.50222
G1 X129.158 Y103.787 E0.51798
G1 X129.429 Y104.505 E0.5333
G1 X129.499 Y104.545 E0.53491
G1 X130.167 Y104.966 E0.55067
G1 X130.793 Y105.456 E0.56653
G1 X131.293 Y105.89 E0.57974
G1 X131.862 Y106.437 E0.59549
G1 X132.404 Y107.079 E0.61226
G1 X132.805 Y107.61 E0.62554
G1 X133.249 Y108.264 E0.64131
G1 X133.617 Y108.945 E0.65676
G1 X133.905 Y109.547 E0.67008
G1 X134.21 Y110.276 E0.68585
G1 X134.446 Y111.06 E0.70219
G1 X134.603 Y111.702 E0.71538
G1 X134.751 Y112.478 E0.73114
G1 X134.821 Y113.285 E0.74731
G1 X134.844 Y113.948 E0.76055
G1 X134.832 Y114.737 E0.77629
G1 X134.737 Y115.533 E0.79229
G1 X134.718 Y115.645 E0.79456
G1 X135.218 Y116.026 E0.8071
G1 X135.821 Y116.536 E0.82286
G1 X136.376 Y117.113 E0.83884
G1 X136.806 Y117.608 E0.85193
G1 X137.294 Y118.229 E0.86769
G1 X137.716 Y118.899 E0.88349
G1 X138.04 Y119.475 E0.89668
G1 X138.392 Y120.182 E0.91244
G1 X138.676 Y120.938 E0.92855
G1 X138.877 Y121.571 E0.94181
G1 X139.078 Y122.335 E0.95757
G1 X139.202 Y123.134 E0.97371
G1 X139.27 Y123.795 E0.98697
G1 X139.311 Y124.583 E1.00272
G1 X139.27 Y125.388 E1.0188
G1 X139.202 Y126.052 E1.03212
G1 X139.082 Y126.832 E1.04787
G1 X138.877 Y127.618 E1.06408
G1 X138.676 Y128.251 E1.07733
G1 X138.399 Y128.99 E1.09308
G1 X138.043 Y129.709 E1.1091
G1 X137.719 Y130.286 E1.1223
G1 X137.298 Y130.954 E1.13806
G1 X136.808 Y131.581 E1.15394
G1 X136.373 Y132.082 E1.16718
G1 X135.825 Y132.651 E1.18294
G1 X135.197 Y133.183 E1.19937
G1 X134.667 Y133.585 E1.21264
G1 X134.014 Y134.029 E1.2284
G1 X133.293 Y134.419 E1.24476
G1 X132.683 Y134.708 E1.25823
G1 X131.953 Y135.009 E1.27399
G1 X131.195 Y135.236 E1.28978
G1 X130.561 Y135.391 E1.3028
G1 X129.786 Y135.539 E1.31855
G1 X128.99 Y135.609 E1.3345
G1 X128.325 Y135.633 E1.34777
G1 X127.536 Y135.621 E1.36352
G1 X126.707 Y135.522 E1.38018
G1 X126.052 Y135.408 E1.39345
G1 X125.281 Y135.234 E1.40922
G1 X124.549 Y134.989 E1.42463
G1 X123.93 Y134.747 E1.43789
G1 X123.543 Y134.572 E1.44637
G1 X123.025 Y134.795 E1.45762
G1 X122.272 Y135.032 E1.47338
G1 X121.498 Y135.191 E1.48914
G1 X120.713 Y135.272 E1.50489
G1 X120.311 Y135.282 E1.51292
G1 X119.367 Y135.282 E1.53176
G1 X119.19 Y135.398 E1.53598
G1 X118.508 Y135.796 E1.55174
G1 X117.725 Y136.148 E1.56887
G1 X117.097 Y136.39 E1.5823
G1 X116.346 Y136.637 E1.59808
G1 X115.636 Y136.795 E1.61259
G1 X114.99 Y136.908 E1.62568
G1 X114.206 Y137.005 E1.64144
G1 X113.365 Y137.02 E1.65823
G1 X112.7 Y136.996 E1.67151
G1 X111.913 Y136.928 E1.68727
G1 X111.139 Y136.78 E1.703
G1 X110.497 Y136.624 E1.71618
G1 X109.74 Y136.399 E1.73194
G1 X108.973 Y136.081 E1.74851
G1 X108.371 Y135.793 E1.76183
G1 X107.677 Y135.417 E1.77758
G1 X107.007 Y134.959 E1.79378
G1 X106.472 Y134.551 E1.80721
G1 X105.869 Y134.041 E1.82297
G1 X105.319 Y133.471 E1.83877
G1 X104.888 Y132.976 E1.85187
G1 X104.401 Y132.355 E1.86762
G1 X103.965 Y131.664 E1.88393
G1 X103.642 Y131.087 E1.89712
G1 X103.291 Y130.379 E1.91289
G1 X103.017 Y129.648 E1.92847
G1 X102.815 Y129.015 E1.94173
G1 X102.614 Y128.252 E1.95748
G1 X102.487 Y127.443 E1.97382
G1 X102.419 Y126.783 E1.98706
G1 X102.378 Y125.995 E2.00281
G1 X102.418 Y125.191 E2.01887
G1 X102.486 Y124.526 E2.03221
G1 X102.564 Y124.02 E2.04243
G1 X102.381 Y123.596 E2.05164
G1 X102.144 Y122.843 E2.0674
G1 X101.985 Y122.069 E2.08317
G1 X101.904 Y121.284 E2.09891
G1 X101.894 Y120.882 E2.10694
G1 X101.894 Y119.936 E2.12582
G1 X101.771 Y119.747 E2.13032
G1 X101.374 Y119.065 E2.14607
G1 X101.035 Y118.311 E2.16256
G1 X100.792 Y117.685 E2.17596
G1 X100.543 Y116.935 E2.19173
G1 X100.375 Y116.181 E2.20715
G1 X100.264 Y115.534 E2.22025
G1 X100.17 Y114.75 E2.23601
G1 X100.157 Y113.945 E2.25207
G1 X100.18 Y113.281 E2.26533
G1 X100.247 Y112.494 E2.2811
G1 X100.399 Y111.695 E2.29733
G1 X100.556 Y111.054 E2.3105
G1 X100.782 Y110.298 E2.32624
G1 X101.094 Y109.548 E2.34245
G1 X101.382 Y108.945 E2.35579
G1 X101.758 Y108.251 E2.37154
G1 X102.212 Y107.584 E2.38764
G1 X102.619 Y107.049 E2.40106
G1 X103.128 Y106.446 E2.4168
G1 X103.713 Y105.883 E2.43301
G1 X104.207 Y105.454 E2.44606
G1 X104.487 Y105.234 E2.45317
G1 X104.503 Y105.131 E2.45525
G1 X104.701 Y104.366 E2.47102
G1 X104.975 Y103.626 E2.48677
G1 X105.323 Y102.917 E2.50253
G1 X105.741 Y102.246 E2.5183
G1 X106.224 Y101.622 E2.53405
G1 X106.767 Y101.049 E2.54981
G0 F6000 X107.16 Y101.23
G1 F1200 X107.755 Y100.742 E2.56516
G1 X108.397 Y100.319 E2.5805
G1 X109.08 Y99.964 E2.59587
G1 X109.795 Y99.683 E2.6112
G1 X110.537 Y99.477 E2.62656
G1 X111.295 Y99.349 E2.64191
G1 X112.144 Y99.3 E2.65888
G1 X113.208 Y99.3 E2.68011
G1 X113.485 Y99.119 E2.68671
G1 X114.15 Y98.732 E2.70207
G1 X114.871 Y98.408 E2.71784
G1 X115.498 Y98.166 E2.73125
G1 X116.229 Y97.927 E2.7466
G1 X116.89 Y97.78 E2.76011
G1 X117.537 Y97.667 E2.77322
G1 X118.3 Y97.575 E2.78856
G1 X119.077 Y97.562 E2.80407
G1 X119.742 Y97.586 E2.81735
G1 X120.508 Y97.653 E2.83269
G1 X121.225 Y97.791 E2.84726
G1 X121.866 Y97.947 E2.86043
G1 X122.603 Y98.167 E2.87578
G1 X123.305 Y98.46 E2.89096
G1 X123.908 Y98.748 E2.90429
G1 X124.584 Y99.115 E2.91964
G1 X125.206 Y99.541 E2.93469
G1 X125.741 Y99.949 E2.94811
G1 X126.328 Y100.446 E2.96346
G1 X126.841 Y100.98 E2.97824
G1 X127.271 Y101.475 E2.99133
G1 X127.744 Y102.081 E3.00667
G1 X128.134 Y102.7 E3.02127
G1 X128.458 Y103.276 E3.03445
G1 X128.799 Y103.965 E3.0498
G1 X129.058 Y104.654 E3.06449
G1 X129.098 Y104.779 E3.0671
G1 X129.303 Y104.894 E3.0718
G1 X129.953 Y105.305 E3.08714
G1 X130.531 Y105.758 E3.1018
G1 X131.031 Y106.192 E3.11501
G1 X131.585 Y106.725 E3.13035
G1 X132.085 Y107.32 E3.14586
G1 X132.486 Y107.851 E3.15914
G1 X132.917 Y108.489 E3.17451
G1 X133.256 Y109.117 E3.18875
G1 X133.544 Y109.719 E3.20206
G1 X133.84 Y110.43 E3.21743
G1 X134.057 Y111.155 E3.23254
G1 X134.214 Y111.797 E3.24573
G1 X134.358 Y112.553 E3.26108
G1 X134.422 Y113.298 E3.27601
G1 X134.445 Y113.961 E3.28924
G1 X134.431 Y114.73 E3.30459
G1 X134.343 Y115.465 E3.31937
G1 X134.281 Y115.827 E3.32669
G1 X134.44 Y115.936 E3.33054
G1 X134.975 Y116.344 E3.34397
G1 X135.562 Y116.841 E3.35932
G1 X136.075 Y117.375 E3.3741
G1 X136.505 Y117.87 E3.38718
G1 X136.978 Y118.476 E3.40252
G1 X137.368 Y119.095 E3.41712
G1 X137.692 Y119.671 E3.43031
G1 X138.033 Y120.36 E3.44565
G1 X138.295 Y121.059 E3.46055
G1 X138.496 Y121.692 E3.4738
G1 X138.69 Y122.437 E3.48917
G1 X138.804 Y123.175 E3.50407
G1 X138.872 Y123.836 E3.51733
G1 X138.911 Y124.604 E3.53267
G1 X138.872 Y125.347 E3.54752
G1 X138.804 Y126.011 E3.56084
G1 X138.686 Y126.771 E3.57619
G1 X138.496 Y127.497 E3.59117
G1 X138.295 Y128.13 E3.60442
G1 X138.024 Y128.85 E3.61977
G1 X137.694 Y129.513 E3.63455
G1 X137.37 Y130.09 E3.64776
G1 X136.959 Y130.74 E3.6631
G1 X136.506 Y131.319 E3.67778
G1 X136.071 Y131.82 E3.69102
G1 X135.537 Y132.373 E3.70636
G1 X134.955 Y132.864 E3.72155
G1 X134.425 Y133.266 E3.73483
G1 X133.789 Y133.698 E3.75017
G1 X133.121 Y134.057 E3.7653
G1 X132.511 Y134.346 E3.77877
G1 X131.8 Y134.639 E3.79412
G1 X131.1 Y134.847 E3.80869
G1 X130.466 Y135.002 E3.82172
G1 X129.711 Y135.146 E3.83706
G1 X128.976 Y135.209 E3.85178
G1 X128.311 Y135.233 E3.86506
G1 X127.542 Y135.221 E3.88041
G1 X126.775 Y135.128 E3.89582
G1 X126.12 Y135.014 E3.90909
G1 X125.37 Y134.843 E3.92444
G1 X124.695 Y134.616 E3.93866
G1 X124.076 Y134.374 E3.95192
G1 X123.541 Y134.132 E3.96364
G1 X123.375 Y134.218 E3.96737
G1 X122.66 Y134.499 E3.9827
G1 X121.918 Y134.705 E3.99807
G1 X121.16 Y134.833 E4.01341
G1 X120.311 Y134.882 E4.03038
G1 X119.248 Y134.882 E4.05159
G1 X118.971 Y135.063 E4.05819
G1 X118.306 Y135.45 E4.07355
G1 X117.581 Y135.775 E4.0894
G1 X116.953 Y136.017 E4.10283
G1 X116.222 Y136.256 E4.11818
G1 X115.567 Y136.401 E4.13157
G1 X114.921 Y136.514 E4.14466
G1 X114.158 Y136.607 E4.16
G1 X113.379 Y136.62 E4.17554
G1 X112.714 Y136.596 E4.18882
G1 X111.948 Y136.529 E4.20417
G1 X111.234 Y136.392 E4.21868
G1 X110.592 Y136.236 E4.23186
G1 X109.855 Y136.016 E4.24721
G1 X109.145 Y135.72 E4.26256
G1 X108.543 Y135.432 E4.27588
G1 X107.868 Y135.065 E4.29121
G1 X107.25 Y134.641 E4.30617
G1 X106.715 Y134.233 E4.3196
G1 X106.128 Y133.736 E4.33494
G1 X105.621 Y133.208 E4.34955
G1 X105.19 Y132.713 E4.36265
G1 X104.716 Y132.108 E4.37799
G1 X104.314 Y131.469 E4.39305
G1 X103.991 Y130.892 E4.40625
G1 X103.651 Y130.202 E4.4216
G1 X103.398 Y129.527 E4.43599
G1 X103.196 Y128.894 E4.44925
G1 X103.001 Y128.15 E4.46459
G1 X102.885 Y127.402 E4.4797
G1 X102.817 Y126.742 E4.49294
G1 X102.778 Y125.974 E4.50829
G1 X102.816 Y125.231 E4.52313
G1 X102.884 Y124.566 E4.53647
G1 X102.975 Y123.979 E4.54833
G1 X102.958 Y123.946 E4.54907
G1 X102.677 Y123.231 E4.5644
G1 X102.471 Y122.489 E4.57977
G1 X102.343 Y121.731 E4.59511
G1 X102.294 Y120.882 E4.61208
G1 X102.294 Y119.816 E4.63335
G1 X102.107 Y119.529 E4.64019
G1 X101.721 Y118.863 E4.65555
G1 X101.408 Y118.166 E4.6708
G1 X101.165 Y117.54 E4.6842
G1 X100.924 Y116.809 E4.69956
G1 X100.77 Y116.113 E4.71378
G1 X100.659 Y115.466 E4.72688
G1 X100.568 Y114.702 E4.74224
G1 X100.556 Y113.959 E4.75707
G1 X100.579 Y113.295 E4.77033
G1 X100.646 Y112.529 E4.78567
G1 X100.787 Y111.791 E4.80066
G1 X100.944 Y111.15 E4.81383
G1 X101.166 Y110.413 E4.82919
G1 X101.455 Y109.721 E4.84416
G1 X101.743 Y109.118 E4.8575
G1 X102.11 Y108.442 E4.87285
G1 X102.531 Y107.827 E4.88772
G1 X102.938 Y107.292 E4.90113
G1 X103.434 Y106.704 E4.91649
G1 X103.975 Y106.185 E4.93145
G1 X104.469 Y105.756 E4.9445
G1 X104.859 Y105.451 E4.95438
G1 X104.903 Y105.172 E4.96002
G1 X105.101 Y104.429 E4.97536
G1 X105.375 Y103.71 E4.99072
G1 X105.722 Y103.024 E5.00606
G1 X106.138 Y102.377 E5.02141
G1 X106.619 Y101.777 E5.03676
G1 X107.16 Y101.23 E5.05211
G0 F6000 X107.552 Y101.416
G1 F1200 X108.142 Y100.957 E5.06703
G1 X108.778 Y100.562 E5.08197
G1 X109.452 Y100.238 E5.09689
G1 X110.157 Y99.988 E5.11182
G1 X110.885 Y99.814 E5.12676
G1 X111.627 Y99.719 E5.14169
G1 X112.144 Y99.7 E5.15201
G1 X113.328 Y99.7 E5.17564
G1 X113.704 Y99.454 E5.1846
G1 X114.351 Y99.078 E5.19954
G1 X115.015 Y98.782 E5.21405
G1 X115.642 Y98.54 E5.22746
G1 X116.354 Y98.308 E5.2424
G1 X116.959 Y98.174 E5.25477
G1 X117.606 Y98.061 E5.26788
G1 X118.348 Y97.972 E5.28279
G1 X119.062 Y97.962 E5.29704
G1 X119.727 Y97.986 E5.31032
G1 X120.473 Y98.052 E5.32526
G1 X121.13 Y98.18 E5.33862
G1 X121.771 Y98.336 E5.35179
G1 X122.488 Y98.551 E5.36672
G1 X123.133 Y98.82 E5.38067
G1 X123.736 Y99.108 E5.39401
G1 X124.393 Y99.466 E5.40894
G1 X124.964 Y99.859 E5.42277
G1 X125.499 Y100.267 E5.4362
G1 X126.069 Y100.752 E5.45113
G1 X126.539 Y101.242 E5.46468
G1 X126.969 Y101.737 E5.47777
G1 X127.428 Y102.328 E5.4927
G1 X127.785 Y102.896 E5.50609
G1 X128.109 Y103.472 E5.51928
G1 X128.44 Y104.143 E5.53421
G1 X128.677 Y104.776 E5.5477
G1 X128.764 Y105.05 E5.55343
G1 X129.107 Y105.242 E5.56128
G1 X129.739 Y105.643 E5.57622
G1 X130.269 Y106.06 E5.58967
G1 X130.769 Y106.494 E5.60289
G1 X131.306 Y107.014 E5.6178
G1 X131.766 Y107.562 E5.63208
G1 X132.167 Y108.093 E5.64536
G1 X132.585 Y108.713 E5.66028
G1 X132.896 Y109.29 E5.67336
G1 X133.184 Y109.892 E5.68668
G1 X133.47 Y110.583 E5.7016
G1 X133.669 Y111.25 E5.7155
G1 X133.826 Y111.892 E5.72868
G1 X133.964 Y112.627 E5.74361
G1 X134.022 Y113.312 E5.75733
G1 X134.045 Y113.975 E5.77057
G1 X134.031 Y114.723 E5.7855
G1 X133.949 Y115.398 E5.79907
G1 X133.844 Y116.011 E5.81148
G1 X134.198 Y116.254 E5.82005
G1 X134.733 Y116.662 E5.83347
G1 X135.303 Y117.147 E5.84841
G1 X135.773 Y117.637 E5.86196
G1 X136.203 Y118.132 E5.87504
G1 X136.662 Y118.723 E5.88998
G1 X137.019 Y119.291 E5.90336
G1 X137.343 Y119.867 E5.91655
G1 X137.674 Y120.538 E5.93148
G1 X137.914 Y121.18 E5.94516
G1 X138.115 Y121.813 E5.95841
G1 X138.303 Y122.538 E5.97336
G1 X138.406 Y123.216 E5.98705
G1 X138.474 Y123.877 E6.00031
G1 X138.511 Y124.624 E6.01523
G1 X138.475 Y125.306 E6.02886
G1 X138.407 Y125.97 E6.04218
G1 X138.291 Y126.709 E6.05711
G1 X138.115 Y127.376 E6.07088
G1 X137.914 Y128.009 E6.08413
G1 X137.65 Y128.708 E6.09904
G1 X137.346 Y129.317 E6.11262
G1 X137.022 Y129.894 E6.12583
G1 X136.621 Y130.526 E6.14077
G1 X136.204 Y131.056 E6.15422
G1 X135.769 Y131.557 E6.16747
G1 X135.249 Y132.095 E6.1824
G1 X134.713 Y132.545 E6.19636
G1 X134.183 Y132.947 E6.20964
G1 X133.564 Y133.367 E6.22457
G1 X132.95 Y133.696 E6.23847
G1 X132.34 Y133.985 E6.25194
G1 X131.648 Y134.269 E6.26687
G1 X131.005 Y134.459 E6.28025
G1 X130.371 Y134.614 E6.29327
G1 X129.636 Y134.752 E6.30819
G1 X128.961 Y134.809 E6.32171
G1 X128.296 Y134.833 E6.33499
G1 X127.549 Y134.82 E6.3499
G1 X126.844 Y134.734 E6.36407
G1 X126.189 Y134.62 E6.37734
G1 X125.46 Y134.453 E6.39227
G1 X124.84 Y134.243 E6.40533
G1 X124.221 Y134.001 E6.41859
G1 X123.534 Y133.689 E6.43365
G1 X123.003 Y133.944 E6.44541
G1 X122.298 Y134.194 E6.46033
G1 X121.57 Y134.368 E6.47527
G1 X120.828 Y134.463 E6.4902
G1 X120.311 Y134.482 E6.50052
G1 X119.128 Y134.482 E6.52413
G1 X118.752 Y134.728 E6.5331
G1 X118.105 Y135.104 E6.54803
G1 X117.437 Y135.402 E6.56263
G1 X116.809 Y135.644 E6.57606
G1 X116.098 Y135.875 E6.59098
G1 X115.498 Y136.007 E6.60324
G1 X114.852 Y136.12 E6.61633
G1 X114.109 Y136.21 E6.63126
G1 X113.394 Y136.22 E6.64553
G1 X112.729 Y136.196 E6.65881
G1 X111.983 Y136.13 E6.67376
G1 X111.328 Y136.003 E6.68707
G1 X110.686 Y135.847 E6.70026
G1 X109.97 Y135.632 E6.71517
G1 X109.318 Y135.36 E6.72927
G1 X108.716 Y135.072 E6.74259
G1 X108.059 Y134.713 E6.75753
G1 X107.492 Y134.323 E6.77126
G1 X106.957 Y133.915 E6.78469
G1 X106.387 Y133.43 E6.79963
G1 X105.923 Y132.946 E6.81301
G1 X105.492 Y132.451 E6.82611
G1 X105.031 Y131.861 E6.84105
G1 X104.663 Y131.273 E6.85489
G1 X104.34 Y130.696 E6.86809
G1 X104.01 Y130.025 E6.88301
G1 X103.779 Y129.405 E6.89621
G1 X103.577 Y128.772 E6.90947
G1 X103.388 Y128.048 E6.9244
G1 X103.283 Y127.361 E6.93827
G1 X103.215 Y126.701 E6.95151
G1 X103.178 Y125.954 E6.96644
G1 X103.214 Y125.272 E6.98007
G1 X103.282 Y124.607 E6.99341
G1 X103.392 Y123.907 E7.00755
G1 X103.232 Y123.574 E7.01492
G1 X102.982 Y122.869 E7.02985
G1 X102.808 Y122.141 E7.04479
G1 X102.713 Y121.399 E7.05971
G1 X102.694 Y120.882 E7.07004
G1 X102.694 Y119.697 E7.09369
G1 X102.442 Y119.31 E7.1029
G1 X102.067 Y118.663 E7.11783
G1 X101.78 Y118.021 E7.13186
G1 X101.537 Y117.395 E7.14526
G1 X101.304 Y116.684 E7.16019
G1 X101.164 Y116.046 E7.17323
G1 X101.053 Y115.399 E7.18633
G1 X100.966 Y114.656 E7.20126
G1 X100.956 Y113.973 E7.21489
